X:40
T:Puddles
C:Peter Jenkins
L:1/16
M:3/8
%%MIDI beat 100 95 80
Q:1/8=180
B:The Kafoozalum Tunes, 2007
R:Bourrée
N:No chord line, just "drone" D/A throughout.
%%staves 1 2
K:D
P:A
V:1
%%MIDI program74
|: agaABA | gfgABA | fefABA | edcB A2 | agaABA | gfgABA | fefABe | ABcA d2 :| !
V:2
%%MIDI program71
%%MIDI beat 70
|:[A6-D6-] | [A6-D6-] | [A6-D6-] | [A6-D6-] | [A6-D6-] | [A6-D6-] | [A6-D6-] | [A6D6]:| !
P:B
V:1
|: B3 cdB | .Az .dz .fz | e3 dce | .dz .fz .az | B3 AGB | .Az .Fz .Dz | EFGABc | d4z2 :|
V:2
|:[A6-D6-] | [A6-D6-] | [A6-D6-] | [A6-D6-] | [A6-D6-] | [A6-D6-] | [A6-D6-] | [A6D6]:| !

